X: 737
T: Moll In The Wad
M:6/8
L:1/8
B:O'Neill's 737
R:Jig
Z:"Transcribed by Bob Safranek, rjs@gsp.org"
K:Dmix
   c | BAB G2 F | E2 F G2 c | BAB G2 B | AFD D2 c |
       BAB G2 F | E2 F G2 c | BGB dcB  | AFD D2  :|
|: c | BGB d2 c | BGB  d2 c | BGB dcB  | AFD D2 c |
       BGB d2 c | BGB  def  | gfe dcB  | AFD D2  :|


